svgs/thin/chart-tree-map.svg

<svg xmlns="http://www.w3.org/2000/svg" viewBox="0 0 512 512"><!--! Font Awesome Pro 6.6.0 by @fontawesome - https://fontawesome.com License - https://fontawesome.com/license (Commercial License) Copyright 2024 Fonticons, Inc. --><path d="M176 48c17.7 0 32 14.3 32 32l0 112c0 17.7-14.3 32-32 32L48 224c-17.7 0-32-14.3-32-32L16 80c0-17.7 14.3-32 32-32l128 0zM48 32C21.5 32 0 53.5 0 80L0 192c0 26.5 21.5 48 48 48l128 0c26.5 0 48-21.5 48-48l0-112c0-26.5-21.5-48-48-48L48 32zM176 288c17.7 0 32 14.3 32 32l0 112c0 17.7-14.3 32-32 32L48 464c-17.7 0-32-14.3-32-32l0-112c0-17.7 14.3-32 32-32l128 0zM48 272c-26.5 0-48 21.5-48 48L0 432c0 26.5 21.5 48 48 48l128 0c26.5 0 48-21.5 48-48l0-112c0-26.5-21.5-48-48-48L48 272zM304 48l160 0c17.7 0 32 14.3 32 32l0 32c0 17.7-14.3 32-32 32l-160 0c-17.7 0-32-14.3-32-32l0-32c0-17.7 14.3-32 32-32zM256 80l0 32c0 26.5 21.5 48 48 48l160 0c26.5 0 48-21.5 48-48l0-32c0-26.5-21.5-48-48-48L304 32c-26.5 0-48 21.5-48 48zM464 208c17.7 0 32 14.3 32 32l0 32c0 17.7-14.3 32-32 32l-160 0c-17.7 0-32-14.3-32-32l0-32c0-17.7 14.3-32 32-32l160 0zM304 192c-26.5 0-48 21.5-48 48l0 32c0 26.5 21.5 48 48 48l160 0c26.5 0 48-21.5 48-48l0-32c0-26.5-21.5-48-48-48l-160 0zm0 176l160 0c17.7 0 32 14.3 32 32l0 32c0 17.7-14.3 32-32 32l-160 0c-17.7 0-32-14.3-32-32l0-32c0-17.7 14.3-32 32-32zm-48 32l0 32c0 26.5 21.5 48 48 48l160 0c26.5 0 48-21.5 48-48l0-32c0-26.5-21.5-48-48-48l-160 0c-26.5 0-48 21.5-48 48z"/></svg>

<svg xmlns="http://www.w3.org/2000/svg" viewBox="0 0 512 512"><!--! Font Awesome Pro 6.5.2 by @fontawesome - https://fontawesome.com License - https://fontawesome.com/license (Commercial License) Copyright 2024 Fonticons, Inc. --><path d="M176 48c17.7 0 32 14.3 32 32V192c0 17.7-14.3 32-32 32H48c-17.7 0-32-14.3-32-32V80c0-17.7 14.3-32 32-32H176zM48 32C21.5 32 0 53.5 0 80V192c0 26.5 21.5 48 48 48H176c26.5 0 48-21.5 48-48V80c0-26.5-21.5-48-48-48H48zM176 288c17.7 0 32 14.3 32 32V432c0 17.7-14.3 32-32 32H48c-17.7 0-32-14.3-32-32V320c0-17.7 14.3-32 32-32H176zM48 272c-26.5 0-48 21.5-48 48V432c0 26.5 21.5 48 48 48H176c26.5 0 48-21.5 48-48V320c0-26.5-21.5-48-48-48H48zM304 48H464c17.7 0 32 14.3 32 32v32c0 17.7-14.3 32-32 32H304c-17.7 0-32-14.3-32-32V80c0-17.7 14.3-32 32-32zM256 80v32c0 26.5 21.5 48 48 48H464c26.5 0 48-21.5 48-48V80c0-26.5-21.5-48-48-48H304c-26.5 0-48 21.5-48 48zM464 208c17.7 0 32 14.3 32 32v32c0 17.7-14.3 32-32 32H304c-17.7 0-32-14.3-32-32V240c0-17.7 14.3-32 32-32H464zM304 192c-26.5 0-48 21.5-48 48v32c0 26.5 21.5 48 48 48H464c26.5 0 48-21.5 48-48V240c0-26.5-21.5-48-48-48H304zm0 176H464c17.7 0 32 14.3 32 32v32c0 17.7-14.3 32-32 32H304c-17.7 0-32-14.3-32-32V400c0-17.7 14.3-32 32-32zm-48 32v32c0 26.5 21.5 48 48 48H464c26.5 0 48-21.5 48-48V400c0-26.5-21.5-48-48-48H304c-26.5 0-48 21.5-48 48z"/></svg>
